src/assets/icons/bm-difficultyBar.svg

<svg width="93" height="33" viewBox="0 0 93 33" fill="none" xmlns="http://www.w3.org/2000/svg">
<g id="difficulty">
<rect id="background" width="93" height="33" rx="5" fill="white"/>
<g id="diffTags">
<g id="easyTag">
<circle id="Ellipse 8" cx="16" cy="17" r="13" fill="#99D485" fill-opacity="0.8"/>
<path id="E" d="M13.4202 20.8003V12.4003H18.4542V13.4803H14.5542V15.9223H17.1822V16.9963H14.5542V19.7203H18.7122V20.8003H13.4202Z" fill="white"/>
</g>
<g id="medTag">
<circle id="Ellipse 8_2" cx="46.5" cy="17" r="13" fill="#A1A1A1" fill-opacity="0.8"/>
<path id="M" d="M43.8949 20.5V12.1H45.0769L46.3249 17.026C46.3689 17.194 46.4069 17.348 46.4389 17.488C46.4709 17.624 46.4949 17.756 46.5109 17.884C46.5269 17.756 46.5509 17.624 46.5829 17.488C46.6189 17.348 46.6569 17.194 46.6969 17.026L47.9629 12.1H49.1029V20.5H48.0829V15.406C48.0829 15.318 48.0829 15.202 48.0829 15.058C48.0869 14.91 48.0949 14.778 48.1069 14.662C48.0789 14.782 48.0469 14.906 48.0109 15.034C47.9789 15.158 47.9469 15.282 47.9149 15.406L46.5769 20.5H46.4209L45.0829 15.406C45.0549 15.282 45.0229 15.158 44.9869 15.034C44.9549 14.906 44.9229 14.782 44.8909 14.662C44.8989 14.778 44.9049 14.91 44.9089 15.058C44.9129 15.202 44.9149 15.318 44.9149 15.406V20.5H43.8949Z" fill="white"/>
</g>
<g id="hardTag">
<circle id="Ellipse 8_3" cx="77" cy="17" r="13" fill="#A1A1A1" fill-opacity="0.8"/>
<path id="H" d="M74.7413 20.5V12.1H75.8753V15.616H78.8153V12.1H79.9493V20.5H78.8153V16.684H75.8753V20.5H74.7413Z" fill="white"/>
</g>
</g>
</g>
</svg>

<svg xmlns="http://www.w3.org/2000/svg" width="93" height="33" fill="none"><rect width="93" height="33" fill="#fff" rx="5"/><circle cx="16" cy="17" r="13" fill="#99D485" fill-opacity=".8"/><path fill="#fff" d="M13.42 20.8v-8.4h5.034v1.08h-3.9v2.442h2.628v1.074h-2.628v2.724h4.158v1.08z"/><circle cx="46.5" cy="17" r="13" fill="#A1A1A1" fill-opacity=".8"/><path fill="#fff" d="M43.895 20.5v-8.4h1.182l1.248 4.926q.066.252.114.462.048.204.072.396.024-.192.072-.396.054-.21.114-.462l1.266-4.926h1.14v8.4h-1.02v-5.442q.006-.222.024-.396-.042.18-.096.372l-.096.372-1.338 5.094h-.156l-1.338-5.094a6 6 0 0 0-.096-.372l-.096-.372q.012.174.018.396.006.216.006.348V20.5z"/><circle cx="77" cy="17" r="13" fill="#A1A1A1" fill-opacity=".8"/><path fill="#fff" d="M74.741 20.5v-8.4h1.134v3.516h2.94V12.1h1.134v8.4h-1.134v-3.816h-2.94V20.5z"/></svg>
